!!!OTL: Adje, jetzt mu&szlig; ich fort (3-38), S. 117
!!!id: P1010
**kern
*clefG2
*k[b-e-]
*g:
{8.d
16g
=1
*M4/4
4g
4a
8b-
8dd
8cc
8ee-
=2
2dd}
4r
=3
{4dd
=4
4ee-
4dd
8cc
8dd
8cc
8a
=5
2b-}
4r
=6
{4b-
=7
*M2/4
4dd
8b-
8cc
=8
4dd
4dd
=9yy
8cc
8b-
8a}
=10
{8cc
=11
*M4/4
4.cc
8dd
8a
8b-
8cc
8a
=12
8b-
8g
4a
4g}
=13
{8dd
8cc
=14
*M2/4
4dd
8b-
8a
=15
2g}
=16yy
4r
==
*-
!!!minrhy: 16
!!!meters: 2/4 4/4 ]  ZZ[5
!!!cut: Adje, jetzt mu&szlig; ich fort (3-38), S. 117
!!!reg: Lothringen
!!!trd: PINCK, Louis: Verklingende Weisen, Bd3, Metz 1933
!!!rhy1: X_.X  X__X__X_X_X_X_  X___0__
!!!rhy2: X__  X__X__X_X_X_X_  X___0__
!!!key: P1010  16  G 2/4 4/4 ]  ZZ[5
!!!mod: SECHSTONSKALA MOLL ?]  AMBITUS[9b
!!!kad: 53b211
!!!akz: 13b5_6b43b_554_423b1_51_
!!!fot: 'a__b__c__d__cw_
!!!for: 'a__av_b__c__bw_
!!!fok: '/__\__^d_Sd_\__
!! PHRAS[AUFTAKTIG]
!!!fkt: Abschiedslied
!! LOTH VKL
!! PR[34] 2K[5] 2G[21] 3K[0] 3G[3] 4A[5] 4Ü[0] 5A[0] 6K[0] 6G[0]
!! 7K[0] 7G[0] 8A[0] MEHR[0] SI[34] ABS[38] SR[26] SP[8]
!! ST[19] 2k[8] 2g[16] 3k[0] 3g[5] 4d[0] 4ü[0] 5d[3] 6k[0] 6g[0]
!! 7k[0] 7g[0] 8d[0] mehr[0] si[32] dm[+2] sr[24] sp[8]
!! 1F[5] 2F[12] 3F[40] 4F[33] LF[0] 2P[5] 3P[2] 4P[5] TRI[5] DF[7] AB[43]
!! TF[0] U3K[0] U3[0] U4[0] U4Ü[0] U5[0] U6K[0] U6[0] U7K[10] U7[0]
!! N1[18] N2K[0] N2[18] N3K[18] N3[0] N4[13] N4Ü[0] N5[21] N6K[3] N6[0]
!!!n7k: 0] N7[0] O1[0] O2K[0] O2[0] O3K[0] O3[0] HÖ[0
!!!RNB: symbol: &szlig; = sz ligature (UTF-8: ÃŸ)
